X:3780
T:DANSE DRAO
Z: Yves BELOTTEAU
M:2/4
L:1/8
Q:1/4=44
K:C
|ee/2e/2dd/2e/2 dcB2|ee/2e/2dd d/2e/2d/2c/2B2|ee/2e/2dd/2e/2 dcB2|ee/2e/2dd d/2e/2d/2c/2B2|
AB/2c/2Bc dcBA/2A/2|dd/2c/2BA dd/2c/2BA|dd/2c/2BB A/2B/2c/2B/2A2|AB/2c/2Bc dcBA/2A/2|
dd/2c/2BA dd/2c/2BA|dd/2c/2BB A/2B/2c/2B/2A2|
